src/gui/emoticons/chocolate.svg

<svg xmlns="http://www.w3.org/2000/svg" xmlns:xlink="http://www.w3.org/1999/xlink" width="16pt" height="16pt" version="1.1" viewBox="0 0 16 16"><defs><linearGradient id="linear0" x1="63.999" x2="63.999" y1="11.93" y2="67.27" gradientTransform="matrix(0.0883875,-0.0883875,0.0883875,0.0883875,-3.31375,8)" gradientUnits="userSpaceOnUse"><stop offset=".169" style="stop-color:#795649;stop-opacity:1"/><stop offset=".794" style="stop-color:#5d4137;stop-opacity:1"/></linearGradient><filter id="alpha" width="100%" height="100%" x="0%" y="0%" filterUnits="objectBoundingBox"><feColorMatrix in="SourceGraphic" type="matrix" values="0 0 0 0 1 0 0 0 0 1 0 0 0 0 1 0 0 0 1 0"/></filter><mask id="mask0"><g filter="url(#alpha)"><rect width="16" height="16" x="0" y="0" style="fill:#000;fill-opacity:.2;stroke:none"/></g></mask><clipPath id="clip1"><rect width="16" height="16" x="0" y="0"/></clipPath><g id="surface5" clip-path="url(#clip1)"><path style="stroke:none;fill-rule:nonzero;fill:#434343;fill-opacity:1" d="M 6.117188 0.90625 C 6.21875 0.90625 6.3125 0.945312 6.386719 1.015625 L 14.933594 9.53125 C 15.007812 9.601562 15.046875 9.695312 15.046875 9.796875 C 15.046875 9.894531 15.007812 9.988281 14.933594 10.058594 L 10.070312 14.90625 C 10 14.976562 9.90625 15.015625 9.804688 15.015625 C 9.703125 15.015625 9.609375 14.976562 9.535156 14.90625 L 0.984375 6.390625 C 0.914062 6.320312 0.875 6.226562 0.875 6.125 C 0.875 6.023438 0.914062 5.929688 0.984375 5.859375 L 5.847656 1.015625 C 5.921875 0.945312 6.015625 0.90625 6.117188 0.90625 M 6.117188 0.53125 C 5.925781 0.53125 5.734375 0.605469 5.585938 0.75 L 0.71875 5.59375 C 0.425781 5.886719 0.425781 6.359375 0.71875 6.65625 L 9.269531 15.171875 C 9.417969 15.316406 9.609375 15.390625 9.800781 15.390625 C 9.996094 15.390625 10.1875 15.316406 10.335938 15.171875 L 15.199219 10.324219 C 15.492188 10.03125 15.492188 9.558594 15.199219 9.265625 L 6.648438 0.75 C 6.503906 0.605469 6.308594 0.53125 6.117188 0.53125 Z M 6.117188 0.53125"/></g><linearGradient id="linear1" x1="71.76" x2="103.77" y1="71.684" y2="103.69" gradientTransform="matrix(0.125,0,0,0.125,0,0)" gradientUnits="userSpaceOnUse"><stop offset=".027" style="stop-color:#c62828;stop-opacity:1"/><stop offset=".721" style="stop-color:#e53a35;stop-opacity:1"/></linearGradient><mask id="mask1"><g filter="url(#alpha)"><rect width="16" height="16" x="0" y="0" style="fill:#000;fill-opacity:.4;stroke:none"/></g></mask><linearGradient id="linear2" x1="63.296" x2="61.637" y1="86.509" y2="94.369" gradientTransform="matrix(0.0883875,-0.0883875,0.0883875,0.0883875,-3.31375,8)" gradientUnits="userSpaceOnUse"><stop offset=".3" style="stop-color:#434343;stop-opacity:1"/><stop offset=".794" style="stop-color:#434343;stop-opacity:0"/></linearGradient><clipPath id="clip2"><rect width="16" height="16" x="0" y="0"/></clipPath><g id="surface8" clip-path="url(#clip2)"><path style="stroke:none;fill-rule:nonzero;fill:url(#linear2)" d="M 13.722656 8.574219 L 6.996094 13.09375 L 5.570312 11.671875 C 5.375 11.476562 5.390625 11.144531 5.605469 10.929688 L 10.929688 5.628906 C 11.144531 5.414062 11.476562 5.398438 11.675781 5.59375 L 13.847656 7.757812 C 14.074219 7.984375 14.011719 8.378906 13.722656 8.574219 Z M 13.722656 8.574219"/></g><mask id="mask2"><g filter="url(#alpha)"><rect width="16" height="16" x="0" y="0" style="fill:#000;fill-opacity:.2;stroke:none"/></g></mask><clipPath id="clip3"><rect width="16" height="16" x="0" y="0"/></clipPath><g id="surface11" clip-path="url(#clip3)"><path style="stroke:none;fill-rule:nonzero;fill:#434343;fill-opacity:1" d="M 11.003906 5.613281 C 11.105469 5.613281 11.203125 5.652344 11.273438 5.722656 L 15.015625 9.453125 C 15.085938 9.523438 15.125 9.617188 15.125 9.714844 C 15.125 9.816406 15.085938 9.910156 15.015625 9.980469 L 9.992188 14.984375 C 9.921875 15.054688 9.824219 15.09375 9.722656 15.09375 C 9.621094 15.09375 9.527344 15.054688 9.457031 14.984375 L 5.710938 11.257812 C 5.640625 11.1875 5.601562 11.09375 5.601562 10.992188 C 5.601562 10.890625 5.640625 10.796875 5.710938 10.726562 L 10.734375 5.722656 C 10.808594 5.652344 10.902344 5.613281 11.003906 5.613281 M 11.003906 5.238281 C 10.8125 5.238281 10.621094 5.3125 10.472656 5.457031 L 5.449219 10.460938 C 5.152344 10.753906 5.152344 11.230469 5.449219 11.523438 L 9.191406 15.25 C 9.335938 15.394531 9.53125 15.46875 9.722656 15.46875 C 9.914062 15.46875 10.109375 15.394531 10.253906 15.25 L 15.277344 10.246094 C 15.574219 9.953125 15.574219 9.480469 15.277344 9.183594 L 11.539062 5.457031 C 11.390625 5.3125 11.199219 5.238281 11.003906 5.238281 Z M 11.003906 5.238281"/></g><linearGradient id="linear3" x1="59.073" x2="81.167" y1="59.162" y2="81.256" gradientTransform="matrix(0.125,0,0,0.125,0,0)" gradientUnits="userSpaceOnUse"><stop offset=".169" style="stop-color:#eceff0;stop-opacity:1"/><stop offset=".794" style="stop-color:#d0d8dc;stop-opacity:1"/></linearGradient><mask id="mask3"><g filter="url(#alpha)"><rect width="16" height="16" x="0" y="0" style="fill:#000;fill-opacity:.2;stroke:none"/></g></mask><clipPath id="clip4"><rect width="16" height="16" x="0" y="0"/></clipPath><g id="surface14" clip-path="url(#clip4)"><path style="stroke:none;fill-rule:nonzero;fill:#434343;fill-opacity:1" d="M 10.859375 5.003906 C 10.886719 5.003906 10.921875 5.011719 10.945312 5.035156 L 13.195312 7.273438 C 13.222656 7.304688 13.226562 7.34375 13.226562 7.375 C 13.21875 7.445312 13.175781 7.511719 13.109375 7.554688 L 6.261719 12.199219 L 5.007812 10.949219 C 4.984375 10.929688 4.976562 10.902344 4.976562 10.867188 C 4.976562 10.808594 5.003906 10.75 5.050781 10.703125 L 10.695312 5.082031 C 10.742188 5.03125 10.800781 5.003906 10.859375 5.003906 M 10.859375 4.628906 C 10.710938 4.628906 10.550781 4.691406 10.429688 4.8125 L 4.785156 10.433594 C 4.558594 10.664062 4.539062 11.011719 4.742188 11.214844 L 6.214844 12.683594 L 13.320312 7.863281 C 13.628906 7.65625 13.695312 7.242188 13.460938 7.007812 L 11.210938 4.769531 C 11.117188 4.675781 10.992188 4.628906 10.859375 4.628906 Z M 10.859375 4.628906"/></g></defs><g id="surface1"><path style="stroke:none;fill-rule:nonzero;fill:url(#linear0)" d="M 15.199219 10.328125 L 10.335938 15.171875 C 10.042969 15.464844 9.5625 15.464844 9.269531 15.171875 L 0.71875 6.65625 C 0.425781 6.363281 0.425781 5.886719 0.71875 5.59375 L 5.585938 0.75 C 5.878906 0.457031 6.355469 0.457031 6.648438 0.75 L 15.199219 9.265625 C 15.492188 9.558594 15.492188 10.03125 15.199219 10.328125 Z M 15.199219 10.328125"/><use mask="url(#mask0)" xlink:href="#surface5"/><path style="stroke:none;fill-rule:nonzero;fill:url(#linear1)" d="M 15.28125 10.246094 L 10.253906 15.25 C 9.960938 15.542969 9.484375 15.542969 9.191406 15.25 L 5.449219 11.523438 C 5.152344 11.230469 5.152344 10.753906 5.449219 10.460938 L 10.472656 5.457031 C 10.765625 5.164062 11.242188 5.164062 11.535156 5.457031 L 15.277344 9.183594 C 15.574219 9.480469 15.574219 9.953125 15.28125 10.246094 Z M 15.28125 10.246094"/><path style="stroke:none;fill-rule:nonzero;fill:#8d6e63;fill-opacity:1" d="M 3.59375 4.566406 L 3.59375 3.925781 L 1.320312 6.191406 L 3.59375 8.453125 L 3.59375 7.816406 L 1.960938 6.191406 Z M 3.59375 4.566406"/><path style="stroke:none;fill-rule:nonzero;fill:#6d4d42;fill-opacity:1" d="M 3.59375 4.566406 L 5.226562 6.191406 L 3.59375 7.816406 L 3.59375 8.453125 L 5.867188 6.191406 L 3.59375 3.925781 Z M 3.59375 4.566406"/><path style="stroke:none;fill-rule:nonzero;fill:#795649;fill-opacity:1" d="M 3.59375 4.566406 L 1.960938 6.191406 L 3.59375 7.816406 L 5.226562 6.191406 Z M 3.59375 4.566406"/><path style="stroke:none;fill-rule:nonzero;fill:#8d6e63;fill-opacity:1" d="M 6.214844 1.953125 L 6.214844 1.3125 L 3.941406 3.578125 L 6.214844 5.84375 L 6.214844 5.203125 L 4.585938 3.578125 Z M 6.214844 1.953125"/><path style="stroke:none;fill-rule:nonzero;fill:#6d4d42;fill-opacity:1" d="M 6.214844 1.953125 L 7.847656 3.578125 L 6.214844 5.203125 L 6.21875 5.84375 L 8.492188 3.578125 L 6.21875 1.3125 Z M 6.214844 1.953125"/><path style="stroke:none;fill-rule:nonzero;fill:#795649;fill-opacity:1" d="M 6.214844 1.953125 L 4.585938 3.578125 L 6.214844 5.203125 L 7.847656 3.578125 Z M 6.214844 1.953125"/><path style="stroke:none;fill-rule:nonzero;fill:#795649;fill-opacity:1" d="M 6.292969 7.25 L 6.292969 6.609375 L 4.015625 8.875 L 6.292969 11.140625 L 6.292969 10.5 L 4.660156 8.875 Z M 6.292969 7.25"/><path style="stroke:none;fill-rule:nonzero;fill:#5d4137;fill-opacity:1" d="M 6.292969 7.25 L 7.921875 8.875 L 6.292969 10.5 L 6.292969 11.140625 L 8.566406 8.875 L 6.292969 6.609375 Z M 6.292969 7.25"/><path style="stroke:none;fill-rule:nonzero;fill:#6d4d42;fill-opacity:1" d="M 6.292969 7.25 L 4.660156 8.875 L 6.292969 10.5 L 7.921875 8.875 Z M 6.292969 7.25"/><path style="stroke:none;fill-rule:nonzero;fill:#795649;fill-opacity:1" d="M 8.914062 4.640625 L 8.914062 4 L 6.640625 6.265625 L 8.914062 8.527344 L 8.914062 7.890625 L 7.28125 6.265625 Z M 8.914062 4.640625"/><path style="stroke:none;fill-rule:nonzero;fill:#5d4137;fill-opacity:1" d="M 8.914062 4.640625 L 10.546875 6.265625 L 8.914062 7.890625 L 8.914062 8.527344 L 11.1875 6.265625 L 8.914062 4 Z M 8.914062 4.640625"/><path style="stroke:none;fill-rule:nonzero;fill:#6d4d42;fill-opacity:1" d="M 8.914062 4.640625 L 7.28125 6.265625 L 8.914062 7.890625 L 10.546875 6.265625 Z M 8.914062 4.640625"/><use mask="url(#mask1)" xlink:href="#surface8"/><use mask="url(#mask2)" xlink:href="#surface11"/><path style="stroke:none;fill-rule:nonzero;fill:url(#linear3)" d="M 13.320312 7.863281 L 6.214844 12.683594 L 4.742188 11.214844 C 4.539062 11.011719 4.558594 10.664062 4.785156 10.433594 L 10.429688 4.8125 C 10.65625 4.585938 11.007812 4.566406 11.210938 4.769531 L 13.457031 7.007812 C 13.695312 7.242188 13.628906 7.65625 13.320312 7.863281 Z M 13.320312 7.863281"/><use mask="url(#mask3)" xlink:href="#surface14"/></g></svg>

<svg xmlns="http://www.w3.org/2000/svg" xmlns:xlink="http://www.w3.org/1999/xlink" width="16pt" height="16pt" viewBox="0 0 16 16"><defs><linearGradient id="g" x1="63.999" x2="63.999" y1="11.93" y2="67.27" gradientTransform="rotate(-45 8 8)scale(.125)" gradientUnits="userSpaceOnUse"><stop offset=".169" style="stop-color:#795649;stop-opacity:1"/><stop offset=".794" style="stop-color:#5d4137;stop-opacity:1"/></linearGradient><linearGradient id="j" x1="71.76" x2="103.77" y1="71.684" y2="103.69" gradientTransform="scale(.125)" gradientUnits="userSpaceOnUse"><stop offset=".027" style="stop-color:#c62828;stop-opacity:1"/><stop offset=".721" style="stop-color:#e53a35;stop-opacity:1"/></linearGradient><linearGradient id="d" x1="63.296" x2="61.637" y1="86.509" y2="94.369" gradientTransform="rotate(-45 8 8)scale(.125)" gradientUnits="userSpaceOnUse"><stop offset=".3" style="stop-color:#434343;stop-opacity:1"/><stop offset=".794" style="stop-color:#434343;stop-opacity:0"/></linearGradient><linearGradient id="o" x1="59.073" x2="81.167" y1="59.162" y2="81.256" gradientTransform="scale(.125)" gradientUnits="userSpaceOnUse"><stop offset=".169" style="stop-color:#eceff0;stop-opacity:1"/><stop offset=".794" style="stop-color:#d0d8dc;stop-opacity:1"/></linearGradient><clipPath id="b"><path d="M0 0h16v16H0z"/></clipPath><clipPath id="c"><path d="M0 0h16v16H0z"/></clipPath><clipPath id="e"><path d="M0 0h16v16H0z"/></clipPath><clipPath id="f"><path d="M0 0h16v16H0z"/></clipPath><mask id="h"><g filter="url(#a)"><path d="M0 0h16v16H0z" style="fill:#000;fill-opacity:.2;stroke:none"/></g></mask><mask id="k"><g filter="url(#a)"><path d="M0 0h16v16H0z" style="fill:#000;fill-opacity:.4;stroke:none"/></g></mask><mask id="m"><g filter="url(#a)"><path d="M0 0h16v16H0z" style="fill:#000;fill-opacity:.2;stroke:none"/></g></mask><mask id="p"><g filter="url(#a)"><path d="M0 0h16v16H0z" style="fill:#000;fill-opacity:.2;stroke:none"/></g></mask><g id="i" clip-path="url(#b)"><path d="M6.117.906c.102 0 .196.04.27.11l8.547 8.515a.36.36 0 0 1 .113.266c0 .098-.04.191-.113.262l-4.864 4.847a.37.37 0 0 1-.265.11.4.4 0 0 1-.27-.11L.985 6.391a.37.37 0 0 1-.11-.266c0-.102.04-.195.11-.266l4.863-4.843a.4.4 0 0 1 .27-.11m0-.375a.76.76 0 0 0-.532.219L.719 5.594a.75.75 0 0 0 0 1.062l8.55 8.516a.76.76 0 0 0 1.067 0l4.863-4.848a.747.747 0 0 0 0-1.058L6.65.75a.76.76 0 0 0-.532-.219m0 0" style="stroke:none;fill-rule:nonzero;fill:#434343;fill-opacity:1"/></g><g id="l" clip-path="url(#c)"><path d="m13.723 8.574-6.727 4.52-1.426-1.422c-.195-.195-.18-.527.035-.742l5.325-5.301c.215-.215.547-.23.746-.035l2.172 2.164c.226.226.164.62-.125.816m0 0" style="stroke:none;fill-rule:nonzero;fill:url(#d)"/></g><g id="n" clip-path="url(#e)"><path d="M11.004 5.613c.101 0 .2.04.27.11l3.742 3.73a.37.37 0 0 1 0 .527l-5.024 5.004a.38.38 0 0 1-.535 0l-3.746-3.726a.37.37 0 0 1-.11-.266c0-.101.04-.195.11-.265l5.023-5.004a.4.4 0 0 1 .27-.11m0-.375a.76.76 0 0 0-.531.219l-5.024 5.004a.745.745 0 0 0 0 1.062l3.742 3.727a.755.755 0 0 0 1.063 0l5.023-5.004a.745.745 0 0 0 0-1.062L11.54 5.457a.76.76 0 0 0-.535-.219m0 0" style="stroke:none;fill-rule:nonzero;fill:#434343;fill-opacity:1"/></g><g id="q" clip-path="url(#f)"><path d="M10.86 5.004c.027 0 .062.008.085.031l2.25 2.238c.028.032.032.07.032.102a.25.25 0 0 1-.118.18l-6.847 4.644-1.254-1.25c-.024-.02-.031-.047-.031-.082 0-.058.027-.117.074-.164l5.644-5.621a.23.23 0 0 1 .164-.078m0-.375a.62.62 0 0 0-.43.184l-5.644 5.62c-.226.231-.246.579-.043.782l1.473 1.469 7.105-4.82c.309-.208.375-.622.14-.856L11.21 4.77a.5.5 0 0 0-.35-.141m0 0" style="stroke:none;fill-rule:nonzero;fill:#434343;fill-opacity:1"/></g><filter id="a" width="100%" height="100%" x="0%" y="0%" filterUnits="objectBoundingBox"><feColorMatrix in="SourceGraphic" values="0 0 0 0 1 0 0 0 0 1 0 0 0 0 1 0 0 0 1 0"/></filter></defs><path d="m15.2 10.328-4.864 4.844a.757.757 0 0 1-1.066 0L.719 6.656a.75.75 0 0 1 0-1.062L5.586.75a.75.75 0 0 1 1.062 0L15.2 9.266a.75.75 0 0 1 0 1.062m0 0" style="stroke:none;fill-rule:nonzero;fill:url(#g)"/><use xlink:href="#i" mask="url(#h)"/><path d="m15.281 10.246-5.027 5.004a.75.75 0 0 1-1.063 0L5.45 11.523a.745.745 0 0 1 0-1.062l5.024-5.004a.75.75 0 0 1 1.062 0l3.742 3.727c.297.296.297.77.004 1.062m0 0" style="stroke:none;fill-rule:nonzero;fill:url(#j)"/><path d="M3.594 4.566v-.64L1.32 6.19l2.274 2.262v-.637L1.96 6.191Zm0 0" style="stroke:none;fill-rule:nonzero;fill:#8d6e63;fill-opacity:1"/><path d="m3.594 4.566 1.633 1.625-1.633 1.625v.637l2.273-2.262-2.273-2.265Zm0 0" style="stroke:none;fill-rule:nonzero;fill:#6d4d42;fill-opacity:1"/><path d="M3.594 4.566 1.96 6.191l1.633 1.625 1.633-1.625Zm0 0" style="stroke:none;fill-rule:nonzero;fill:#795649;fill-opacity:1"/><path d="M6.215 1.953v-.64L3.94 3.578l2.274 2.266v-.64l-1.63-1.626Zm0 0" style="stroke:none;fill-rule:nonzero;fill:#8d6e63;fill-opacity:1"/><path d="m6.215 1.953 1.633 1.625-1.633 1.625.004.64 2.273-2.265L6.22 1.313Zm0 0" style="stroke:none;fill-rule:nonzero;fill:#6d4d42;fill-opacity:1"/><path d="m6.215 1.953-1.63 1.625 1.63 1.625 1.633-1.625ZM6.293 7.25v-.64L4.016 8.874l2.277 2.266V10.5L4.66 8.875Zm0 0" style="stroke:none;fill-rule:nonzero;fill:#795649;fill-opacity:1"/><path d="m6.293 7.25 1.629 1.625L6.293 10.5v.64l2.273-2.265-2.273-2.266Zm0 0" style="stroke:none;fill-rule:nonzero;fill:#5d4137;fill-opacity:1"/><path d="M6.293 7.25 4.66 8.875 6.293 10.5l1.629-1.625Zm0 0" style="stroke:none;fill-rule:nonzero;fill:#6d4d42;fill-opacity:1"/><path d="M8.914 4.64V4L6.641 6.266l2.273 2.261v-.636L7.281 6.266Zm0 0" style="stroke:none;fill-rule:nonzero;fill:#795649;fill-opacity:1"/><path d="m8.914 4.64 1.633 1.626L8.914 7.89v.636l2.274-2.261L8.914 4Zm0 0" style="stroke:none;fill-rule:nonzero;fill:#5d4137;fill-opacity:1"/><path d="M8.914 4.64 7.281 6.267 8.914 7.89l1.633-1.625Zm0 0" style="stroke:none;fill-rule:nonzero;fill:#6d4d42;fill-opacity:1"/><use xlink:href="#l" mask="url(#k)"/><use xlink:href="#n" mask="url(#m)"/><path d="m13.32 7.863-7.105 4.82-1.473-1.468c-.203-.203-.183-.55.043-.781l5.645-5.621c.226-.227.578-.247.78-.043l2.247 2.238c.238.234.172.648-.137.855m0 0" style="stroke:none;fill-rule:nonzero;fill:url(#o)"/><use xlink:href="#q" mask="url(#p)"/></svg>
